!!!OTL: SCHOENSTER SCHATZ AUF DIESER ERDE
!!!ARE: Europa, Mitteleuropa, Deutschland; France, Elsass
!!!SCT: E0545A
!!!YEM: Copyright 1995, estate of Helmut Schaffrath.
**kern
*ICvox
*Ivox
*M4/4
*k[f#]
*G:
=1
{4g
4d
4b
8g
8b
=2
4dd
4dd
8dd
8cc
4cc}
=3
{4.b
8a
4b
4ee
=4
4dd
8cc
8b
2a}
=5
{4.dd
8cc
4b
4dd
=6
8.ee
16dd
8.cc
16b
8b
8a
4a}
=7
{4.dd
8cc
4b
4ee
=8
8.dd
16cc
8.b
16a
4g
4r}
=9
{4.dd
8cc
4b
4dd
=10
8.ee
16dd
8.cc
16b
8b
8a
4a}
=11
{4.dd
8cc
4b
4ee
=12
8.dd
16cc
8.b
16a
4g
4r}
==
!!!AGN: Liebes - Lied, Treue
!!!ONB: ESAC (Essen Associative Code) Database: ERK1
!!!AMT: simple quadruple
!!!AIN: vox
!!!EED: Helmut Schaffrath
!!!EEV: 1.0
*-
